X: 6
T: 6. Christus, der ist mein Leben
N: Derived from chor006.krn
C: Johann Sebastian Bach
%%abc-version 2.0
%%abcx-abcm2ps-target-version 5.9.1 (29 Sep 2008)
%%abc-creator hum2abc beta
%%abcx-conversion-date 2019/03/11 17:28:17
%%abc-edited-by Craig Stuart Sapp
%%humdrum-veritas 2075484982
%%humdrum-veritas-data 2800051055
%%
%%barnumbers 0
L: 1/4
M: C
%%staves [1 2 3 4]
V: 1 clef=treble
V: 2 clef=treble
V: 3 clef=treble-8
V: 4 clef=bass
K: F
[V:1] F [I:setbarnb 1]| 
[V:2] C | 
[V:3] A | 
[V:4] F,, | 
[V:1] AGAB | 
[V:2] FGFF | 
[V:3] cccd | 
[V:4] F,E,_E,D, | 
[V:1] c2!fermata!Ad | 
[V:2] E/F/G/E/!fermata!FF | 
[V:3] Gc!fermata!cB | 
[V:4] C,/D,/E,/C,/!fermata!F,B,, | 
[V:1] cBAG | 
[V:2] F3/E/F3/E/ | 
[V:3] cd/B/cc | 
[V:4] A,,G,,F,,/A,,/C, | 
[V:1] !fermata!A2zc | 
[V:2] !fermata!F2xA- | 
[V:3] !fermata!c2xf | 
[V:4] !fermata!F,,2zA, | 
[V:1] defe | 
[V:2] A/G/- G/c//_B//AA | 
[V:3] fe-e/d/c- | 
[V:4] =B,,C,D,/F,/ A,/G,/ | 
[V:1] d2!fermata!cA | 
[V:2] AG!fermata!GF- | 
[V:3] c=B!fermata!ec | 
[V:4] F,/D,/G,!fermata!C,F,, | 
[V:1] BAGG | 
[V:2] F/E/FFE | 
[V:3] _Bcdc3//B// | 
[V:4] G,,A,,B,,C, | 
[V:1] !fermata!F3 |]  
[V:2] !fermata!C3 |]  
[V:3] !fermata!A3 |]  
[V:4] !fermata!F,,3 |]  



